X:1
T:Title
%%score { 1 | ( 2 3 ) }
L:1/8
M:3/4
K:Ab
V:1 treble nm="Grand Piano"
V:2 bass 
V:3 bass 
V:1
 z2 z2 z[Q:1/4=90] [CE] | [CE][A,C] [B,D][CE] [Ac][GB] | [FA][EG] F E2 E | EF [EG][EA] [EB][Ec] | %4
 [=DB][DF] [FA] [B,EG]2 [GB] | [GB][FA] [GB][Ac] [Ac][GB] | [FA][FA] [FA] [Fd]2 [=DAc] | %7
 [EGB]c df e[A,EA] | [CEA][Ec] [DEB] [CEA]2[K:bass] [A,CE]/[B,D]/ | %9
[M:5/8] [E,A,C][K:treble][CE][CA] [CA]2 |] %10
V:2
 z2 z2 z [A,,A,] | [A,,A,] [A,,E,]2 [A,,A,] [A,,A,][C,A,] | [D,A,][D,A,] [F,A,D] [A,C]2 [E,G,] | %3
 [E,G,][E,A,E] [D,B,][C,A,] [B,,G,][A,,A,] | [B,,F,][B,,B,] [B,,B,] E,2 E, | E,E, E,A, A,C, | %6
 D,D, D, B,,2 B,, | z2 z[K:treble] .[A,A]3[K:bass] | E,[E,A,] E, A,,2 z/ E,/ | %9
[M:5/8] z A,[A,,E,] [A,,E,]2 |] %10
V:3
 x6 | x6 | x6 | x6 | x6 | x6 | x6 | E,[E,A,E] [E,B,E][K:treble]D C[K:bass]C, | z2 z2 z A,, | %9
[M:5/8] A,,2 z z2 |] %10

